poi/svg/1124.svg

<?xml version="1.0" encoding="UTF-8" standalone="no"?>
<svg
   xmlns:dc="http://purl.org/dc/elements/1.1/"
   xmlns:cc="http://creativecommons.org/ns#"
   xmlns:rdf="http://www.w3.org/1999/02/22-rdf-syntax-ns#"
   xmlns:svg="http://www.w3.org/2000/svg"
   xmlns="http://www.w3.org/2000/svg"
   xmlns:sodipodi="http://sodipodi.sourceforge.net/DTD/sodipodi-0.dtd"
   xmlns:inkscape="http://www.inkscape.org/namespaces/inkscape"
   inkscape:version="1.0 (4035a4fb49, 2020-05-01)"
   sodipodi:docname="1124.svg"
   id="svg20"
   version="1.2"
   viewBox="0 0 42.519639 42.519639"
   height="14.999999mm"
   width="14.999999mm">
  <metadata
     id="metadata24">
    <rdf:RDF>
      <cc:Work
         rdf:about="">
        <dc:format>image/svg+xml</dc:format>
        <dc:type
           rdf:resource="http://purl.org/dc/dcmitype/StillImage" />
        <dc:title>Qt SVG Document</dc:title>
      </cc:Work>
    </rdf:RDF>
  </metadata>
  <sodipodi:namedview
     inkscape:current-layer="svg20"
     inkscape:window-maximized="0"
     inkscape:window-y="0"
     inkscape:window-x="0"
     inkscape:cy="28.346482"
     inkscape:cx="28.346482"
     inkscape:zoom="5.8410537"
     showgrid="false"
     id="namedview22"
     inkscape:window-height="480"
     inkscape:window-width="1034"
     inkscape:pageshadow="2"
     inkscape:pageopacity="0"
     guidetolerance="10"
     gridtolerance="10"
     objecttolerance="10"
     borderopacity="1"
     bordercolor="#666666"
     pagecolor="#ffffff" />
  <title
     id="title2">Qt SVG Document</title>
  <desc
     id="desc4">Generated with Qt</desc>
  <defs
     id="defs6" />
  <g
     transform="translate(5.25984,5.25984)"
     id="g18"
     stroke-linejoin="bevel"
     stroke-linecap="square"
     fill-rule="evenodd"
     stroke-width="1"
     stroke="#000000"
     fill="none">
    <g
       id="g10"
       font-style="normal"
       font-weight="400"
       font-size="7.8px"
       font-family="'MS Shell Dlg 2'"
       stroke="none"
       fill-opacity="1"
       fill="#3d97f1">
      <path
         id="path8"
         d="M 37.2598,16 C 37.2598,27.7415 27.7415,37.2598 16,37.2598 4.25851,37.2598 -5.25984,27.7415 -5.25984,16 -5.25984,4.25851 4.25851,-5.25984 16,-5.25984 27.7415,-5.25984 37.2598,4.25851 37.2598,16"
         fill-rule="evenodd"
         vector-effect="non-scaling-stroke" />
    </g>
    <g
       id="g14"
       font-style="normal"
       font-weight="400"
       font-size="7.8px"
       font-family="'MS Shell Dlg 2'"
       transform="translate(16,13.1654)"
       stroke="none"
       fill-opacity="0.94902"
       fill="#ffffff">
      <path
         id="path12"
         d="m 4.08545,4.9707 c 0,0.19597 -0.09798,0.29395 -0.29395,0.29395 -0.16796,0 -0.25195,-0.09798 -0.25195,-0.29395 0,-0.23795 0.08399,-0.35693 0.25195,-0.35693 0.19597,0 0.29395,0.11898 0.29395,0.35693 M -3.7251,5.26465 c -0.06998,0 -0.13997,-0.021 -0.20996,-0.06299 -0.06999,-0.04199 -0.10498,-0.11898 -0.10498,-0.23096 0,-0.08398 0.03499,-0.16447 0.10498,-0.24145 0.06999,-0.07699 0.13998,-0.11548 0.20996,-0.11548 0.22396,0 0.33594,0.11898 0.33594,0.35693 0,0.19597 -0.11198,0.29395 -0.33594,0.29395 M 2.51074,4.61377 c 0.22396,0 0.33594,0.11898 0.33594,0.35693 0,0.19597 -0.11198,0.29395 -0.33594,0.29395 -0.06998,0 -0.13997,-0.021 -0.20996,-0.06299 C 2.23079,5.15967 2.1958,5.08268 2.1958,4.9707 2.1958,4.88672 2.23079,4.80623 2.30078,4.72925 2.37077,4.65226 2.44076,4.61377 2.51074,4.61377 M 1.54492,4.9707 c 0,0.19597 -0.08398,0.29395 -0.25195,0.29395 -0.19596,0 -0.293947,-0.09798 -0.293947,-0.29395 0,-0.23795 0.097987,-0.35693 0.293947,-0.35693 0.16797,0 0.25195,0.11898 0.25195,0.35693 m -1.196775,0 c 0,0.11198 -0.027995,0.18897 -0.083985,0.23096 -0.055989,0.04199 -0.111979,0.06299 -0.1679686,0.06299 -0.2659504,0 -0.3989254,-0.09798 -0.3989254,-0.29395 0,-0.23795 0.132975,-0.35693 0.3989254,-0.35693 0.0559896,0 0.1119796,0.03849 0.1679686,0.11548 0.05599,0.07698 0.083985,0.15747 0.083985,0.24145 m -1.196778,0 c 0,0.19597 -0.132975,0.29395 -0.398927,0.29395 -0.16797,0 -0.25195,-0.09798 -0.25195,-0.29395 0,-0.23795 0.08398,-0.35693 0.25195,-0.35693 0.265952,0 0.398927,0.11898 0.398927,0.35693 M -2.44434,5.26465 c -0.08398,0 -0.16796,-0.021 -0.25195,-0.06299 -0.08398,-0.04199 -0.12598,-0.11898 -0.12598,-0.23096 0,-0.08398 0.042,-0.16447 0.12598,-0.24145 0.08399,-0.07699 0.16797,-0.11548 0.25195,-0.11548 0.19597,0 0.29395,0.11898 0.29395,0.35693 0,0.19597 -0.09798,0.29395 -0.29395,0.29395 M 6.75195,1.44336 V 5.34863 L 8.34766,6.94434 V 8.2251 L 5.84912,7.42725 3.30859,8.2251 V 6.94434 L 4.9043,5.34863 V 1.44336 L -2.36035,3.75293 V 1.98926 L 4.9043,-2.56689 v -5.29102 c 0,-0.22396 0.08748,-0.41992 0.26245,-0.58789 0.17497,-0.16797 0.40242,-0.25195 0.68237,-0.25195 0.23796,0 0.44792,0.08398 0.62988,0.25195 0.18197,0.16797 0.27295,0.36393 0.27295,0.58789 v 5.29102 L 14.0166,1.98926 V 3.75293 L 6.75195,1.44336 M -4.85889,5.43262 2.51074,9.98877 V 11.7524 L -4.85889,9.44287 v 3.90523 l 1.59571,1.5957 v 1.1968 l -2.45655,-0.7348 -2.47754,0.7348 v -1.1968 l 1.57471,-1.5957 V 9.44287 L -13.9712,11.7524 V 9.98877 L -6.62256,5.43262 V 0.141602 c 0,-0.2239588 0.08049,-0.423422 0.24146,-0.598389 0.16097,-0.174968 0.35343,-0.262451 0.57739,-0.262451 h 0.08398 c 0.23796,0 0.44092,0.087483 0.60889,0.262451 0.16797,0.174967 0.25195,0.3744302 0.25195,0.598389 V 5.43262"
         fill-rule="evenodd"
         vector-effect="none" />
    </g>
    <g
       id="g16"
       font-style="normal"
       font-weight="400"
       font-size="7.8px"
       font-family="'MS Shell Dlg 2'"
       stroke="none"
       fill-opacity="1"
       fill="#3d97f1" />
  </g>
</svg>

<?xml version="1.0" encoding="UTF-8" standalone="no"?>
<svg width="11.2889mm" height="11.2889mm"
 viewBox="0 0 32 32"
 xmlns="http://www.w3.org/2000/svg" xmlns:xlink="http://www.w3.org/1999/xlink"  version="1.2" baseProfile="tiny">
<title>Qt SVG Document</title>
<desc>Generated with Qt</desc>
<defs>
</defs>
<g fill="none" stroke="black" stroke-width="1" fill-rule="evenodd" stroke-linecap="square" stroke-linejoin="bevel" >

<g fill="#3d97f1" fill-opacity="1" stroke="none" transform="matrix(1,0,0,1,0,0)"
font-family="MS Shell Dlg 2" font-size="7.8" font-weight="400" font-style="normal" 
>
<path vector-effect="non-scaling-stroke" fill-rule="evenodd" d="M37.2598,16 C37.2598,27.7415 27.7415,37.2598 16,37.2598 C4.25851,37.2598 -5.25984,27.7415 -5.25984,16 C-5.25984,4.25851 4.25851,-5.25984 16,-5.25984 C27.7415,-5.25984 37.2598,4.25851 37.2598,16 "/>
</g>

<g fill="#ffffff" fill-opacity="0.94902" stroke="none" transform="matrix(1,0,0,1,16,13.1654)"
font-family="MS Shell Dlg 2" font-size="7.8" font-weight="400" font-style="normal" 
>
<path vector-effect="none" fill-rule="evenodd" d="M4.08545,4.9707 C4.08545,5.16667 3.98747,5.26465 3.7915,5.26465 C3.62354,5.26465 3.53955,5.16667 3.53955,4.9707 C3.53955,4.73275 3.62354,4.61377 3.7915,4.61377 C3.98747,4.61377 4.08545,4.73275 4.08545,4.9707 M-3.7251,5.26465 C-3.79508,5.26465 -3.86507,5.24365 -3.93506,5.20166 C-4.00505,5.15967 -4.04004,5.08268 -4.04004,4.9707 C-4.04004,4.88672 -4.00505,4.80623 -3.93506,4.72925 C-3.86507,4.65226 -3.79508,4.61377 -3.7251,4.61377 C-3.50114,4.61377 -3.38916,4.73275 -3.38916,4.9707 C-3.38916,5.16667 -3.50114,5.26465 -3.7251,5.26465 M2.51074,4.61377 C2.7347,4.61377 2.84668,4.73275 2.84668,4.9707 C2.84668,5.16667 2.7347,5.26465 2.51074,5.26465 C2.44076,5.26465 2.37077,5.24365 2.30078,5.20166 C2.23079,5.15967 2.1958,5.08268 2.1958,4.9707 C2.1958,4.88672 2.23079,4.80623 2.30078,4.72925 C2.37077,4.65226 2.44076,4.61377 2.51074,4.61377 M1.54492,4.9707 C1.54492,5.16667 1.46094,5.26465 1.29297,5.26465 C1.09701,5.26465 0.999023,5.16667 0.999023,4.9707 C0.999023,4.73275 1.09701,4.61377 1.29297,4.61377 C1.46094,4.61377 1.54492,4.73275 1.54492,4.9707 M0.348145,4.9707 C0.348145,5.08268 0.32015,5.15967 0.26416,5.20166 C0.208171,5.24365 0.152181,5.26465 0.0961914,5.26465 C-0.169759,5.26465 -0.302734,5.16667 -0.302734,4.9707 C-0.302734,4.73275 -0.169759,4.61377 0.0961914,4.61377 C0.152181,4.61377 0.208171,4.65226 0.26416,4.72925 C0.32015,4.80623 0.348145,4.88672 0.348145,4.9707 M-0.848633,4.9707 C-0.848633,5.16667 -0.981608,5.26465 -1.24756,5.26465 C-1.41553,5.26465 -1.49951,5.16667 -1.49951,4.9707 C-1.49951,4.73275 -1.41553,4.61377 -1.24756,4.61377 C-0.981608,4.61377 -0.848633,4.73275 -0.848633,4.9707 M-2.44434,5.26465 C-2.52832,5.26465 -2.6123,5.24365 -2.69629,5.20166 C-2.78027,5.15967 -2.82227,5.08268 -2.82227,4.9707 C-2.82227,4.88672 -2.78027,4.80623 -2.69629,4.72925 C-2.6123,4.65226 -2.52832,4.61377 -2.44434,4.61377 C-2.24837,4.61377 -2.15039,4.73275 -2.15039,4.9707 C-2.15039,5.16667 -2.24837,5.26465 -2.44434,5.26465 M6.75195,1.44336 L6.75195,5.34863 L8.34766,6.94434 L8.34766,8.2251 L5.84912,7.42725 L3.30859,8.2251 L3.30859,6.94434 L4.9043,5.34863 L4.9043,1.44336 L-2.36035,3.75293 L-2.36035,1.98926 L4.9043,-2.56689 L4.9043,-7.85791 C4.9043,-8.08187 4.99178,-8.27783 5.16675,-8.4458 C5.34172,-8.61377 5.56917,-8.69775 5.84912,-8.69775 C6.08708,-8.69775 6.29704,-8.61377 6.479,-8.4458 C6.66097,-8.27783 6.75195,-8.08187 6.75195,-7.85791 L6.75195,-2.56689 L14.0166,1.98926 L14.0166,3.75293 L6.75195,1.44336 M-4.85889,5.43262 L2.51074,9.98877 L2.51074,11.7524 L-4.85889,9.44287 L-4.85889,13.3481 L-3.26318,14.9438 L-3.26318,16.1406 L-5.71973,15.4058 L-8.19727,16.1406 L-8.19727,14.9438 L-6.62256,13.3481 L-6.62256,9.44287 L-13.9712,11.7524 L-13.9712,9.98877 L-6.62256,5.43262 L-6.62256,0.141602 C-6.62256,-0.0823568 -6.54207,-0.28182 -6.3811,-0.456787 C-6.22013,-0.631755 -6.02767,-0.719238 -5.80371,-0.719238 L-5.71973,-0.719238 C-5.48177,-0.719238 -5.27881,-0.631755 -5.11084,-0.456787 C-4.94287,-0.28182 -4.85889,-0.0823568 -4.85889,0.141602 L-4.85889,5.43262"/>
</g>

<g fill="#3d97f1" fill-opacity="1" stroke="none" transform="matrix(1,0,0,1,0,0)"
font-family="MS Shell Dlg 2" font-size="7.8" font-weight="400" font-style="normal" 
>
</g>
</g>
</svg>
